;FLAVOR:Marlin
;TIME:1023
;Filament used: 1.19835m
;Layer height: 0.3
;MINX:64.2
;MINY:83.7
;MINZ:0.3
;MAXX:135.8
;MAXY:116.3
;MAXZ:3.9
;Generated with Cura_SteamEngine 4.13.1
M140 S60
M105
M190 S60
M104 S200
M105
M109 S200
M82 ;absolute extrusion mode
G21 ;metric values
 G90 ;absolute positioning
 M82 ;set extruder to absolute mode
 M107 ;start with the fan off
 G28 X0 Y0 ;move X/Y to min endstops
 G28 Z0 ;move Z to min endstops
 G1 Z15.0 F120 ;move the platform down 15mm
 G92 E0 ;zero the extruded length
 G1 F200 E6 ;extrude 6 mm of feed stock
 G92 E0 ;zero the extruded length again
 G1 F120 
 ;Put printing message on LCD screen
 M117 Printing...
G92 E0
G92 E0
G1 F1500 E-6.5
;LAYER_COUNT:13
;LAYER:0
M107
G0 F3600 X67.222 Y85.334 Z0.3
;TYPE:SKIRT
G1 F1500 E0
G1 F1800 X67.87 Y84.883 E0.03939
G1 X68.561 Y84.499 E0.07883
G1 X69.286 Y84.187 E0.11821
G1 X70.039 Y83.95 E0.15759
G1 X70.813 Y83.791 E0.19701
G1 X71.598 Y83.71 E0.23638
G1 X72 Y83.7 E0.25644
G1 X128 Y83.7 E3.0503
G1 X128.789 Y83.74 E3.08971
G1 X129.569 Y83.859 E3.12907
G1 X130.334 Y84.057 E3.1685
G1 X131.074 Y84.331 E3.20787
G1 X131.783 Y84.679 E3.24727
G1 X132.454 Y85.097 E3.28671
G1 X133.078 Y85.58 E3.32608
G1 X133.651 Y86.123 E3.36546
G1 X134.166 Y86.722 E3.40487
G1 X134.617 Y87.37 E3.44426
G1 X135.001 Y88.061 E3.4837
G1 X135.313 Y88.786 E3.52308
G1 X135.55 Y89.539 E3.56246
G1 X135.709 Y90.313 E3.60188
G1 X135.79 Y91.098 E3.64126
G1 X135.8 Y91.5 E3.66132
G1 X135.8 Y108.5 E4.50945
G1 X135.76 Y109.289 E4.54887
G1 X135.641 Y110.069 E4.58823
G1 X135.443 Y110.834 E4.62765
G1 X135.169 Y111.574 E4.66702
G1 X134.821 Y112.283 E4.70643
G1 X134.403 Y112.954 E4.74587
G1 X133.92 Y113.578 E4.78523
G1 X133.377 Y114.151 E4.82462
G1 X132.778 Y114.666 E4.86403
G1 X132.13 Y115.117 E4.90342
G1 X131.439 Y115.501 E4.94286
G1 X130.714 Y115.813 E4.98223
G1 X129.961 Y116.05 E5.02162
G1 X129.187 Y116.209 E5.06104
G1 X128.402 Y116.29 E5.10041
G1 X128 Y116.3 E5.12047
G1 X72 Y116.3 E7.91432
G1 X71.211 Y116.26 E7.95374
G1 X70.431 Y116.141 E7.9931
G1 X69.666 Y115.943 E8.03253
G1 X68.926 Y115.669 E8.0719
G1 X68.217 Y115.321 E8.1113
G1 X67.546 Y114.903 E8.15074
G1 X66.922 Y114.42 E8.19011
G1 X66.349 Y113.877 E8.22949
G1 X65.834 Y113.278 E8.2689
G1 X65.383 Y112.63 E8.30829
G1 X64.999 Y111.939 E8.34773
G1 X64.687 Y111.214 E8.38711
G1 X64.45 Y110.461 E8.42649
G1 X64.291 Y109.687 E8.46591
G1 X64.21 Y108.902 E8.50528
G1 X64.2 Y108.5 E8.52535
G1 X64.2 Y91.5 E9.37348
G1 X64.24 Y90.711 E9.41289
G1 X64.359 Y89.931 E9.45226
G1 X64.557 Y89.166 E9.49168
G1 X64.831 Y88.426 E9.53105
G1 X65.179 Y87.717 E9.57045
G1 X65.597 Y87.046 E9.60989
G1 X66.08 Y86.422 E9.64926
G1 X66.623 Y85.849 E9.68865
G1 X67.222 Y85.334 E9.72806
G0 F3600 X67.611 Y85.542
G1 F1800 X68.253 Y85.119 E9.76641
G1 X68.936 Y84.764 E9.80482
G1 X69.651 Y84.483 E9.84314
G1 X70.393 Y84.277 E9.88156
G1 X71.151 Y84.149 E9.91992
G1 X72 Y84.1 E9.96234
G1 X128 Y84.1 E12.75619
G1 X128.768 Y84.14 E12.79456
G1 X129.528 Y84.259 E12.83294
G1 X130.271 Y84.457 E12.8713
G1 X130.99 Y84.731 E12.90969
G1 X131.676 Y85.078 E12.94804
G1 X132.323 Y85.494 E12.98642
G1 X132.923 Y85.975 E13.02479
G1 X133.47 Y86.516 E13.06317
G1 X133.958 Y87.111 E13.10156
G1 X134.381 Y87.753 E13.13992
G1 X134.736 Y88.436 E13.17832
G1 X135.017 Y89.151 E13.21665
G1 X135.223 Y89.893 E13.25507
G1 X135.351 Y90.651 E13.29342
G1 X135.4 Y91.5 E13.33584
G1 X135.4 Y108.5 E14.18398
G1 X135.36 Y109.268 E14.22235
G1 X135.241 Y110.028 E14.26072
G1 X135.043 Y110.771 E14.29909
G1 X134.769 Y111.49 E14.33747
G1 X134.422 Y112.176 E14.37583
G1 X134.006 Y112.823 E14.4142
G1 X133.525 Y113.423 E14.45257
G1 X132.984 Y113.97 E14.49095
G1 X132.389 Y114.458 E14.52934
G1 X131.747 Y114.881 E14.5677
G1 X131.064 Y115.236 E14.6061
G1 X130.349 Y115.517 E14.64443
G1 X129.607 Y115.723 E14.68285
G1 X128.849 Y115.851 E14.7212
G1 X128 Y115.9 E14.76363
G1 X72 Y115.9 E17.55748
G1 X71.232 Y115.86 E17.59585
G1 X70.472 Y115.741 E17.63423
G1 X69.729 Y115.543 E17.67259
G1 X69.01 Y115.269 E17.71098
G1 X68.324 Y114.922 E17.74933
G1 X67.677 Y114.506 E17.78771
G1 X67.077 Y114.025 E17.82607
G1 X66.53 Y113.484 E17.86445
G1 X66.042 Y112.889 E17.90285
G1 X65.619 Y112.247 E17.9412
G1 X65.264 Y111.564 E17.97961
G1 X64.983 Y110.849 E18.01793
G1 X64.777 Y110.107 E18.05635
G1 X64.649 Y109.349 E18.0947
G1 X64.6 Y108.5 E18.13713
G1 X64.6 Y91.5 E18.98526
G1 X64.64 Y90.732 E19.02363
G1 X64.759 Y89.972 E19.06201
G1 X64.957 Y89.229 E19.10037
G1 X65.231 Y88.51 E19.13876
G1 X65.578 Y87.824 E19.17711
G1 X65.994 Y87.177 E19.21549
G1 X66.475 Y86.577 E19.25386
G1 X67.016 Y86.03 E19.29224
G1 X67.611 Y85.542 E19.33063
G0 F3600 X67.998 Y85.757
G1 F1800 X68.634 Y85.362 E19.36798
G1 X69.308 Y85.038 E19.40529
G1 X70.013 Y84.788 E19.44261
G1 X70.741 Y84.614 E19.47995
G1 X71.483 Y84.519 E19.51727
G1 X72 Y84.5 E19.54308
G1 X128 Y84.5 E22.33694
G1 X128.747 Y84.54 E22.37426
G1 X129.485 Y84.659 E22.41155
G1 X130.207 Y84.857 E22.4489
G1 X130.903 Y85.13 E22.4862
G1 X131.566 Y85.477 E22.52353
G1 X132.189 Y85.892 E22.56088
G1 X132.763 Y86.371 E22.59818
G1 X133.284 Y86.908 E22.63551
G1 X133.743 Y87.498 E22.6728
G1 X134.138 Y88.134 E22.71015
G1 X134.462 Y88.808 E22.74746
G1 X134.712 Y89.513 E22.78478
G1 X134.886 Y90.241 E22.82212
G1 X134.981 Y90.983 E22.85944
G1 X135 Y91.5 E22.88526
G1 X135 Y108.5 E23.73339
G1 X134.96 Y109.247 E23.77071
G1 X134.841 Y109.985 E23.808
G1 X134.643 Y110.707 E23.84536
G1 X134.37 Y111.403 E23.88265
G1 X134.023 Y112.066 E23.91999
G1 X133.608 Y112.689 E23.95733
G1 X133.129 Y113.263 E23.99463
G1 X132.592 Y113.784 E24.03196
G1 X132.002 Y114.243 E24.06925
G1 X131.366 Y114.638 E24.10661
G1 X130.692 Y114.962 E24.14392
G1 X129.987 Y115.212 E24.18123
G1 X129.259 Y115.386 E24.21858
G1 X128.517 Y115.481 E24.2559
G1 X128 Y115.5 E24.28171
G1 X72 Y115.5 E27.07556
G1 X71.253 Y115.46 E27.11288
G1 X70.515 Y115.341 E27.15018
G1 X69.793 Y115.143 E27.18753
G1 X69.097 Y114.87 E27.22483
G1 X68.434 Y114.523 E27.26216
G1 X67.811 Y114.108 E27.29951
G1 X67.237 Y113.629 E27.3368
G1 X66.716 Y113.092 E27.37413
G1 X66.257 Y112.502 E27.41143
G1 X65.862 Y111.866 E27.44878
G1 X65.538 Y111.192 E27.48609
G1 X65.288 Y110.487 E27.52341
G1 X65.114 Y109.759 E27.56075
G1 X65.019 Y109.017 E27.59807
G1 X65 Y108.5 E27.62388
G1 X65 Y91.5 E28.47201
G1 X65.04 Y90.753 E28.50933
G1 X65.159 Y90.015 E28.54663
G1 X65.357 Y89.293 E28.58398
G1 X65.63 Y88.597 E28.62128
G1 X65.977 Y87.934 E28.65861
G1 X66.392 Y87.311 E28.69596
G1 X66.871 Y86.737 E28.73326
G1 X67.408 Y86.216 E28.77059
G1 X67.998 Y85.757 E28.80788
G0 F3600 X67.799 Y86.409
G1 F1800 X68.384 Y85.979 E28.8441
G1 X69.013 Y85.615 E28.88036
G1 X69.678 Y85.322 E28.91661
G1 X70.371 Y85.104 E28.95286
G1 X71.083 Y84.964 E28.98906
G1 X72 Y84.9 E29.03492
G1 X128 Y84.9 E31.82877
G1 X128.725 Y84.94 E31.865
G1 X129.442 Y85.059 E31.90126
G1 X130.141 Y85.257 E31.9375
G1 X130.814 Y85.53 E31.97374
G1 X131.453 Y85.875 E32.00997
G1 X132.05 Y86.289 E32.04621
G1 X132.598 Y86.765 E32.08242
G1 X133.091 Y87.299 E32.11868
G1 X133.521 Y87.884 E32.15491
G1 X133.885 Y88.513 E32.19116
G1 X134.178 Y89.178 E32.22742
G1 X134.396 Y89.871 E32.26366
G1 X134.536 Y90.583 E32.29986
G1 X134.6 Y91.5 E32.34572
G1 X134.6 Y108.5 E33.19386
G1 X134.56 Y109.225 E33.23008
G1 X134.441 Y109.942 E33.26634
G1 X134.243 Y110.641 E33.30259
G1 X133.97 Y111.314 E33.33882
G1 X133.625 Y111.953 E33.37505
G1 X133.211 Y112.55 E33.4113
G1 X132.735 Y113.098 E33.44751
G1 X132.201 Y113.591 E33.48377
G1 X131.616 Y114.021 E33.51999
G1 X130.987 Y114.385 E33.55625
G1 X130.322 Y114.678 E33.5925
G1 X129.629 Y114.896 E33.62875
G1 X128.917 Y115.036 E33.66495
G1 X128 Y115.1 E33.71081
G1 X72 Y115.1 E36.50466
G1 X71.275 Y115.06 E36.54089
G1 X70.558 Y114.941 E36.57715
G1 X69.859 Y114.743 E36.61339
G1 X69.186 Y114.47 E36.64962
G1 X68.547 Y114.125 E36.68585
G1 X67.95 Y113.711 E36.7221
G1 X67.402 Y113.235 E36.75831
G1 X66.909 Y112.701 E36.79457
G1 X66.479 Y112.116 E36.83079
G1 X66.115 Y111.487 E36.86705
G1 X65.822 Y110.822 E36.90331
G1 X65.604 Y110.129 E36.93955
G1 X65.464 Y109.417 E36.97575
G1 X65.4 Y108.5 E37.02161
G1 X65.4 Y91.5 E37.86975
G1 X65.44 Y90.775 E37.90597
G1 X65.559 Y90.058 E37.94223
G1 X65.757 Y89.359 E37.97848
G1 X66.03 Y88.686 E38.01471
G1 X66.375 Y88.047 E38.05094
G1 X66.789 Y87.45 E38.08719
G1 X67.265 Y86.902 E38.1234
G1 X67.799 Y86.409 E38.15966
G0 F3600 X68.189 Y86.609
G1 F1800 X68.768 Y86.209 E38.19477
G1 X69.389 Y85.877 E38.2299
G1 X70.043 Y85.617 E38.26501
G1 X70.723 Y85.433 E38.30016
G1 X71.419 Y85.327 E38.33528
G1 X72 Y85.3 E38.3643
G1 X128 Y85.3 E41.15815
G1 X128.703 Y85.34 E41.19328
G1 X129.397 Y85.459 E41.22841
G1 X130.072 Y85.657 E41.2635
G1 X130.721 Y85.929 E41.29861
G1 X131.335 Y86.274 E41.33375
G1 X131.906 Y86.685 E41.36885
G1 X132.427 Y87.159 E41.40399
G1 X132.891 Y87.689 E41.43913
G1 X133.291 Y88.268 E41.47424
G1 X133.623 Y88.889 E41.50937
G1 X133.883 Y89.543 E41.54448
G1 X134.067 Y90.223 E41.57963
G1 X134.173 Y90.919 E41.61475
G1 X134.2 Y91.5 E41.64377
G1 X134.2 Y108.5 E42.4919
G1 X134.16 Y109.203 E42.52703
G1 X134.041 Y109.897 E42.56216
G1 X133.843 Y110.572 E42.59726
G1 X133.571 Y111.221 E42.63236
G1 X133.226 Y111.835 E42.6675
G1 X132.815 Y112.406 E42.7026
G1 X132.341 Y112.927 E42.73774
G1 X131.811 Y113.391 E42.77289
G1 X131.232 Y113.791 E42.80799
G1 X130.611 Y114.123 E42.84313
G1 X129.957 Y114.383 E42.87824
G1 X129.277 Y114.567 E42.91338
G1 X128.581 Y114.673 E42.94851
G1 X128 Y114.7 E42.97752
G1 X72 Y114.7 E45.77138
G1 X71.297 Y114.66 E45.80651
G1 X70.603 Y114.541 E45.84163
G1 X69.928 Y114.343 E45.87673
G1 X69.279 Y114.071 E45.91184
G1 X68.665 Y113.726 E45.94697
G1 X68.094 Y113.315 E45.98207
G1 X67.573 Y112.841 E46.01721
G1 X67.109 Y112.311 E46.05236
G1 X66.709 Y111.732 E46.08747
G1 X66.377 Y111.111 E46.1226
G1 X66.117 Y110.457 E46.15771
G1 X65.933 Y109.777 E46.19286
G1 X65.827 Y109.081 E46.22798
G1 X65.8 Y108.5 E46.257
G1 X65.8 Y91.5 E47.10513
G1 X65.84 Y90.797 E47.14026
G1 X65.959 Y90.103 E47.17539
G1 X66.157 Y89.428 E47.21048
G1 X66.429 Y88.779 E47.24559
G1 X66.774 Y88.165 E47.28073
G1 X67.185 Y87.594 E47.31583
G1 X67.659 Y87.073 E47.35097
G1 X68.189 Y86.609 E47.38611
G0 F3600 X68.578 Y86.817
G1 F1800 X69.15 Y86.448 E47.42007
G1 X69.762 Y86.149 E47.45405
G1 X70.404 Y85.924 E47.48799
G1 X71.069 Y85.775 E47.52199
G1 X72 Y85.7 E47.56859
G1 X128 Y85.7 E50.36244
G1 X128.68 Y85.74 E50.39643
G1 X129.35 Y85.859 E50.43038
G1 X130.002 Y86.056 E50.46436
G1 X130.626 Y86.328 E50.49832
G1 X131.214 Y86.672 E50.5323
G1 X131.758 Y87.082 E50.56629
G1 X132.249 Y87.553 E50.60023
G1 X132.683 Y88.078 E50.63422
G1 X133.052 Y88.65 E50.66818
G1 X133.351 Y89.262 E50.70216
G1 X133.576 Y89.904 E50.7361
G1 X133.725 Y90.569 E50.7701
G1 X133.8 Y91.5 E50.8167
G1 X133.8 Y108.5 E51.66483
G1 X133.76 Y109.18 E51.69881
G1 X133.641 Y109.85 E51.73276
G1 X133.444 Y110.502 E51.76674
G1 X133.172 Y111.126 E51.80071
G1 X132.828 Y111.714 E51.83469
G1 X132.418 Y112.258 E51.86868
G1 X131.947 Y112.749 E51.90262
G1 X131.422 Y113.183 E51.93661
G1 X130.85 Y113.552 E51.97057
G1 X130.238 Y113.851 E52.00455
G1 X129.596 Y114.076 E52.03849
G1 X128.931 Y114.225 E52.07249
G1 X128 Y114.3 E52.11908
G1 X72 Y114.3 E54.91294
G1 X71.32 Y114.26 E54.94692
G1 X70.65 Y114.141 E54.98087
G1 X69.998 Y113.944 E55.01485
G1 X69.374 Y113.672 E55.04881
G1 X68.786 Y113.328 E55.0828
G1 X68.242 Y112.918 E55.11678
G1 X67.751 Y112.447 E55.15073
G1 X67.317 Y111.922 E55.18471
G1 X66.948 Y111.35 E55.21867
G1 X66.649 Y110.738 E55.25265
G1 X66.424 Y110.096 E55.28659
G1 X66.275 Y109.431 E55.32059
G1 X66.2 Y108.5 E55.36719
G1 X66.2 Y91.5 E56.21532
G1 X66.24 Y90.82 E56.24931
G1 X66.359 Y90.15 E56.28326
G1 X66.556 Y89.498 E56.31724
G1 X66.828 Y88.874 E56.3512
G1 X67.172 Y88.286 E56.38519
G1 X67.582 Y87.742 E56.41917
G1 X68.053 Y87.251 E56.45312
G1 X68.578 Y86.817 E56.4871
G0 F3600 X68.445 Y87.435
G1 F1800 X68.965 Y87.034 E56.51986
G1 X69.529 Y86.698 E56.55261
G1 X70.131 Y86.434 E56.58541
G1 X70.76 Y86.244 E56.61819
G1 X71.407 Y86.133 E56.65094
G1 X72 Y86.1 E56.68057
G1 X128 Y86.1 E59.47442
G1 X128.656 Y86.14 E59.50721
G1 X129.302 Y86.259 E59.53998
G1 X129.929 Y86.456 E59.57277
G1 X130.527 Y86.728 E59.60555
G1 X131.088 Y87.07 E59.63832
G1 X131.603 Y87.478 E59.6711
G1 X132.065 Y87.945 E59.70388
G1 X132.466 Y88.465 E59.73664
G1 X132.802 Y89.029 E59.76939
G1 X133.066 Y89.631 E59.80219
G1 X133.256 Y90.26 E59.83497
G1 X133.367 Y90.907 E59.86772
G1 X133.4 Y91.5 E59.89735
G1 X133.4 Y108.5 E60.74548
G1 X133.36 Y109.156 E60.77827
G1 X133.241 Y109.802 E60.81104
G1 X133.044 Y110.429 E60.84383
G1 X132.772 Y111.027 E60.87661
G1 X132.43 Y111.588 E60.90939
G1 X132.022 Y112.103 E60.94217
G1 X131.555 Y112.565 E60.97494
G1 X131.035 Y112.966 E61.0077
G1 X130.471 Y113.302 E61.04045
G1 X129.869 Y113.566 E61.07325
G1 X129.24 Y113.756 E61.10603
G1 X128.593 Y113.867 E61.13878
G1 X128 Y113.9 E61.16841
G1 X72 Y113.9 E63.96226
G1 X71.344 Y113.86 E63.99505
G1 X70.698 Y113.741 E64.02782
G1 X70.071 Y113.544 E64.06061
G1 X69.473 Y113.272 E64.09339
G1 X68.912 Y112.93 E64.12617
G1 X68.397 Y112.522 E64.15894
G1 X67.935 Y112.055 E64.19172
G1 X67.534 Y111.535 E64.22448
G1 X67.198 Y110.971 E64.25723
G1 X66.934 Y110.369 E64.29003
G1 X66.744 Y109.74 E64.32281
G1 X66.633 Y109.093 E64.35556
G1 X66.6 Y108.5 E64.38519
G1 X66.6 Y91.5 E65.23332
G1 X66.64 Y90.844 E65.26611
G1 X66.759 Y90.198 E65.29888
G1 X66.956 Y89.571 E65.33167
G1 X67.228 Y88.973 E65.36445
G1 X67.57 Y88.412 E65.39723
G1 X67.978 Y87.897 E65.43001
G1 X68.445 Y87.435 E65.46278
G0 F3600 X68.836 Y87.629
G1 F1800 X69.35 Y87.26 E65.49435
G1 X69.906 Y86.96 E65.52587
G1 X70.495 Y86.732 E65.55738
G1 X71.109 Y86.58 E65.58893
G1 X72 Y86.5 E65.63356
G1 X128 Y86.5 E68.42742
G1 X128.631 Y86.54 E68.45896
G1 X129.252 Y86.659 E68.49051
G1 X129.852 Y86.856 E68.52201
G1 X130.424 Y87.127 E68.55359
G1 X130.956 Y87.467 E68.58509
G1 X131.441 Y87.873 E68.61664
G1 X131.871 Y88.336 E68.64817
G1 X132.24 Y88.85 E68.67974
G1 X132.54 Y89.406 E68.71126
G1 X132.768 Y89.995 E68.74277
G1 X132.92 Y90.609 E68.77432
G1 X133 Y91.5 E68.81895
G1 X133 Y108.5 E69.66709
G1 X132.96 Y109.131 E69.69863
G1 X132.841 Y109.752 E69.73018
G1 X132.644 Y110.352 E69.76168
G1 X132.373 Y110.924 E69.79326
G1 X132.033 Y111.456 E69.82476
G1 X131.627 Y111.941 E69.85632
G1 X131.164 Y112.371 E69.88784
G1 X130.65 Y112.74 E69.91941
G1 X130.094 Y113.04 E69.95093
G1 X129.505 Y113.268 E69.98244
G1 X128.891 Y113.42 E70.01399
G1 X128 Y113.5 E70.05863
G1 X72 Y113.5 E72.85248
G1 X71.369 Y113.46 E72.88402
G1 X70.748 Y113.341 E72.91557
G1 X70.148 Y113.144 E72.94707
G1 X69.576 Y112.873 E72.97865
G1 X69.044 Y112.533 E73.01015
G1 X68.559 Y112.127 E73.04171
G1 X68.129 Y111.664 E73.07323
G1 X67.76 Y111.15 E73.1048
G1 X67.46 Y110.594 E73.13632
G1 X67.232 Y110.005 E73.16783
G1 X67.08 Y109.391 E73.19938
G1 X67 Y108.5 E73.24401
G1 X67 Y91.5 E74.09215
G1 X67.04 Y90.869 E74.12369
G1 X67.159 Y90.248 E74.15524
G1 X67.356 Y89.648 E74.18674
G1 X67.627 Y89.076 E74.21832
G1 X67.967 Y88.544 E74.24982
G1 X68.373 Y88.059 E74.28138
G1 X68.836 Y87.629 E74.3129
G0 F3600 X69.225 Y87.831
G1 F1800 X69.732 Y87.498 E74.34316
G1 X70.278 Y87.234 E74.37342
G1 X70.854 Y87.045 E74.40366
G1 X71.45 Y86.933 E74.43392
G1 X72 Y86.9 E74.46141
G1 X128 Y86.9 E77.25526
G1 X128.605 Y86.94 E77.28551
G1 X129.199 Y87.059 E77.31573
G1 X129.773 Y87.255 E77.34599
G1 X130.316 Y87.526 E77.37627
G1 X130.819 Y87.865 E77.40653
G1 X131.272 Y88.267 E77.43675
G1 X131.669 Y88.725 E77.46699
G1 X132.002 Y89.232 E77.49725
G1 X132.266 Y89.778 E77.52751
G1 X132.455 Y90.354 E77.55775
G1 X132.567 Y90.95 E77.58801
G1 X132.6 Y91.5 E77.6155
G1 X132.6 Y108.5 E78.46363
G1 X132.56 Y109.105 E78.49388
G1 X132.441 Y109.699 E78.5241
G1 X132.245 Y110.273 E78.55436
G1 X131.974 Y110.816 E78.58464
G1 X131.635 Y111.319 E78.6149
G1 X131.233 Y111.772 E78.64512
G1 X130.775 Y112.169 E78.67536
G1 X130.268 Y112.502 E78.70562
G1 X129.722 Y112.766 E78.73588
G1 X129.146 Y112.955 E78.76612
G1 X128.55 Y113.067 E78.79638
G1 X128 Y113.1 E78.82386
G1 X72 Y113.1 E81.61772
G1 X71.395 Y113.06 E81.64796
G1 X70.801 Y112.941 E81.67819
G1 X70.227 Y112.745 E81.70845
G1 X69.684 Y112.474 E81.73873
G1 X69.181 Y112.135 E81.76899
G1 X68.728 Y111.733 E81.7992
G1 X68.331 Y111.275 E81.82944
