;FLAVOR:Marlin
;TIME:1511
;Filament used: 1.40726m
;Layer height: 0.2
;MINX:53.7
;MINY:79.6
;MINZ:0.3
;MAXX:146.3
;MAXY:120.4
;MAXZ:2.1
;Generated with Cura_SteamEngine 4.13.1
M140 S60
M105
M190 S60
M104 S200
M105
M109 S200
M82 ;absolute extrusion mode
G21 ;metric values
 G90 ;absolute positioning
 M82 ;set extruder to absolute mode
 M107 ;start with the fan off
 G28 X0 Y0 ;move X/Y to min endstops
 G28 Z0 ;move Z to min endstops
 G1 Z15.0 F120 ;move the platform down 15mm
 G92 E0 ;zero the extruded length
 G1 F200 E6 ;extrude 6 mm of feed stock
 G92 E0 ;zero the extruded length again
 G1 F120 
 ;Put printing message on LCD screen
 M117 Printing...
G92 E0
G92 E0
G1 F1500 E-6.5
;LAYER_COUNT:10
;LAYER:0
M107
G0 F3600 X56.722 Y81.234 Z0.3
;TYPE:SKIRT
G1 F1500 E0
G1 F1800 X57.37 Y80.783 E0.03939
G1 X58.061 Y80.399 E0.07883
G1 X58.786 Y80.087 E0.11821
G1 X59.539 Y79.85 E0.15759
G1 X60.313 Y79.691 E0.19701
G1 X61.098 Y79.61 E0.23638
G1 X61.5 Y79.6 E0.25644
G1 X138.5 Y79.6 E4.09799
G1 X139.289 Y79.64 E4.1374
G1 X140.069 Y79.759 E4.17677
G1 X140.834 Y79.957 E4.21619
G1 X141.574 Y80.231 E4.25556
G1 X142.283 Y80.579 E4.29496
G1 X142.954 Y80.997 E4.3344
G1 X143.578 Y81.48 E4.37377
G1 X144.151 Y82.023 E4.41316
G1 X144.666 Y82.622 E4.45257
G1 X145.117 Y83.27 E4.49196
G1 X145.501 Y83.961 E4.5314
G1 X145.813 Y84.686 E4.57077
G1 X146.05 Y85.439 E4.61016
G1 X146.209 Y86.213 E4.64958
G1 X146.29 Y86.998 E4.68895
G1 X146.3 Y87.4 E4.70901
G1 X146.3 Y112.6 E5.96625
G1 X146.26 Y113.389 E6.00566
G1 X146.141 Y114.169 E6.04502
G1 X145.943 Y114.934 E6.08445
G1 X145.669 Y115.674 E6.12382
G1 X145.321 Y116.383 E6.16322
G1 X144.903 Y117.054 E6.20266
G1 X144.42 Y117.678 E6.24203
G1 X143.877 Y118.251 E6.28141
G1 X143.278 Y118.766 E6.32082
G1 X142.63 Y119.217 E6.36021
G1 X141.939 Y119.601 E6.39965
G1 X141.214 Y119.913 E6.43903
G1 X140.461 Y120.15 E6.47841
G1 X139.687 Y120.309 E6.51783
G1 X138.902 Y120.39 E6.55721
G1 X138.5 Y120.4 E6.57727
G1 X61.5 Y120.4 E10.41881
G1 X60.711 Y120.36 E10.45823
G1 X59.931 Y120.241 E10.49759
G1 X59.166 Y120.043 E10.53702
G1 X58.426 Y119.769 E10.57638
G1 X57.717 Y119.421 E10.61579
G1 X57.046 Y119.003 E10.65523
G1 X56.422 Y118.52 E10.6946
G1 X55.849 Y117.977 E10.73398
G1 X55.334 Y117.378 E10.77339
G1 X54.883 Y116.73 E10.81278
G1 X54.499 Y116.039 E10.85222
G1 X54.187 Y115.314 E10.8916
G1 X53.95 Y114.561 E10.93098
G1 X53.791 Y113.787 E10.9704
G1 X53.71 Y113.002 E11.00977
G1 X53.7 Y112.6 E11.02984
G1 X53.7 Y87.4 E12.28707
G1 X53.74 Y86.611 E12.32648
G1 X53.859 Y85.831 E12.36585
G1 X54.057 Y85.066 E12.40527
G1 X54.331 Y84.326 E12.44464
G1 X54.679 Y83.617 E12.48404
G1 X55.097 Y82.946 E12.52348
G1 X55.58 Y82.322 E12.56285
G1 X56.123 Y81.749 E12.60223
G1 X56.722 Y81.234 E12.64165
G0 F3600 X57.111 Y81.442
G1 F1800 X57.753 Y81.019 E12.68
G1 X58.436 Y80.664 E12.71841
G1 X59.151 Y80.383 E12.75673
G1 X59.893 Y80.177 E12.79515
G1 X60.651 Y80.049 E12.8335
G1 X61.5 Y80 E12.87593
G1 X138.5 Y80 E16.71748
G1 X139.268 Y80.04 E16.75584
G1 X140.028 Y80.159 E16.79422
G1 X140.771 Y80.357 E16.83258
G1 X141.49 Y80.631 E16.87097
G1 X142.176 Y80.978 E16.90933
G1 X142.823 Y81.394 E16.9477
G1 X143.423 Y81.875 E16.98607
G1 X143.97 Y82.416 E17.02445
G1 X144.458 Y83.011 E17.06284
G1 X144.881 Y83.653 E17.1012
G1 X145.236 Y84.336 E17.1396
G1 X145.517 Y85.051 E17.17793
G1 X145.723 Y85.793 E17.21635
G1 X145.851 Y86.551 E17.2547
G1 X145.9 Y87.4 E17.29713
G1 X145.9 Y112.6 E18.55436
G1 X145.86 Y113.368 E18.59273
G1 X145.741 Y114.128 E18.63111
G1 X145.543 Y114.871 E18.66947
G1 X145.269 Y115.59 E18.70786
G1 X144.922 Y116.276 E18.74621
G1 X144.506 Y116.923 E18.78459
G1 X144.025 Y117.523 E18.82295
G1 X143.484 Y118.07 E18.86133
G1 X142.889 Y118.558 E18.89973
G1 X142.247 Y118.981 E18.93808
G1 X141.564 Y119.336 E18.97649
G1 X140.849 Y119.617 E19.01481
G1 X140.107 Y119.823 E19.05323
G1 X139.349 Y119.951 E19.09158
G1 X138.5 Y120 E19.13401
G1 X61.5 Y120 E22.97556
G1 X60.732 Y119.96 E23.01392
G1 X59.972 Y119.841 E23.0523
G1 X59.229 Y119.643 E23.09066
G1 X58.51 Y119.369 E23.12905
G1 X57.824 Y119.022 E23.16741
G1 X57.177 Y118.606 E23.20578
G1 X56.577 Y118.125 E23.24415
G1 X56.03 Y117.584 E23.28253
G1 X55.542 Y116.989 E23.32092
G1 X55.119 Y116.347 E23.35928
G1 X54.764 Y115.664 E23.39768
G1 X54.483 Y114.949 E23.43601
G1 X54.277 Y114.207 E23.47443
G1 X54.149 Y113.449 E23.51278
G1 X54.1 Y112.6 E23.55521
G1 X54.1 Y87.4 E24.81244
G1 X54.14 Y86.632 E24.85081
G1 X54.259 Y85.872 E24.88919
G1 X54.457 Y85.129 E24.92755
G1 X54.731 Y84.41 E24.96594
G1 X55.078 Y83.724 E25.00429
G1 X55.494 Y83.077 E25.04267
G1 X55.975 Y82.477 E25.08103
G1 X56.516 Y81.93 E25.11941
G1 X57.111 Y81.442 E25.15781
G0 F3600 X57.498 Y81.657
G1 F1800 X58.134 Y81.262 E25.19516
G1 X58.808 Y80.938 E25.23247
G1 X59.513 Y80.688 E25.26978
G1 X60.241 Y80.514 E25.30713
G1 X60.983 Y80.419 E25.34445
G1 X61.5 Y80.4 E25.37026
G1 X138.5 Y80.4 E29.21181
G1 X139.247 Y80.44 E29.24913
G1 X139.985 Y80.559 E29.28642
G1 X140.707 Y80.757 E29.32377
G1 X141.403 Y81.03 E29.36107
G1 X142.066 Y81.377 E29.3984
G1 X142.689 Y81.792 E29.43575
G1 X143.263 Y82.271 E29.47305
G1 X143.784 Y82.808 E29.51038
G1 X144.243 Y83.398 E29.54767
G1 X144.638 Y84.034 E29.58502
G1 X144.962 Y84.708 E29.62233
G1 X145.212 Y85.413 E29.65965
G1 X145.386 Y86.141 E29.69699
G1 X145.481 Y86.883 E29.73431
G1 X145.5 Y87.4 E29.76013
G1 X145.5 Y112.6 E31.01736
G1 X145.46 Y113.347 E31.05468
G1 X145.341 Y114.085 E31.09197
G1 X145.143 Y114.807 E31.12932
G1 X144.87 Y115.503 E31.16662
G1 X144.523 Y116.166 E31.20396
G1 X144.108 Y116.789 E31.2413
G1 X143.629 Y117.363 E31.2786
G1 X143.092 Y117.884 E31.31593
G1 X142.502 Y118.343 E31.35322
G1 X141.866 Y118.738 E31.39058
G1 X141.192 Y119.062 E31.42789
G1 X140.487 Y119.312 E31.4652
G1 X139.759 Y119.486 E31.50255
G1 X139.017 Y119.581 E31.53987
G1 X138.5 Y119.6 E31.56568
G1 X61.5 Y119.6 E35.40722
G1 X60.753 Y119.56 E35.44455
G1 X60.015 Y119.441 E35.48184
G1 X59.293 Y119.243 E35.51919
G1 X58.597 Y118.97 E35.55649
G1 X57.934 Y118.623 E35.59382
G1 X57.311 Y118.208 E35.63117
G1 X56.737 Y117.729 E35.66847
G1 X56.216 Y117.192 E35.7058
G1 X55.757 Y116.602 E35.74309
G1 X55.362 Y115.966 E35.78044
G1 X55.038 Y115.292 E35.81775
G1 X54.788 Y114.587 E35.85507
G1 X54.614 Y113.859 E35.89241
G1 X54.519 Y113.117 E35.92973
G1 X54.5 Y112.6 E35.95554
G1 X54.5 Y87.4 E37.21278
G1 X54.54 Y86.653 E37.2501
G1 X54.659 Y85.915 E37.28739
G1 X54.857 Y85.193 E37.32474
G1 X55.13 Y84.497 E37.36204
G1 X55.477 Y83.834 E37.39938
G1 X55.892 Y83.211 E37.43672
G1 X56.371 Y82.637 E37.47402
G1 X56.908 Y82.116 E37.51135
G1 X57.498 Y81.657 E37.54864
G0 F3600 X57.299 Y82.309
G1 F1800 X57.884 Y81.879 E37.58486
G1 X58.513 Y81.515 E37.62112
G1 X59.178 Y81.222 E37.65738
G1 X59.871 Y81.004 E37.69362
G1 X60.583 Y80.864 E37.72982
G1 X61.5 Y80.8 E37.77568
G1 X138.5 Y80.8 E41.61723
G1 X139.225 Y80.84 E41.65345
G1 X139.942 Y80.959 E41.68971
G1 X140.641 Y81.157 E41.72596
G1 X141.314 Y81.43 E41.76219
G1 X141.953 Y81.775 E41.79842
G1 X142.55 Y82.189 E41.83467
G1 X143.098 Y82.665 E41.87088
G1 X143.591 Y83.199 E41.90714
G1 X144.021 Y83.784 E41.94336
G1 X144.385 Y84.413 E41.97962
G1 X144.678 Y85.078 E42.01587
G1 X144.896 Y85.771 E42.05212
G1 X145.036 Y86.483 E42.08832
G1 X145.1 Y87.4 E42.13418
G1 X145.1 Y112.6 E43.39141
G1 X145.06 Y113.325 E43.42764
G1 X144.941 Y114.042 E43.4639
G1 X144.743 Y114.741 E43.50015
G1 X144.47 Y115.414 E43.53638
G1 X144.125 Y116.053 E43.57261
G1 X143.711 Y116.65 E43.60885
G1 X143.235 Y117.198 E43.64507
G1 X142.701 Y117.691 E43.68133
G1 X142.116 Y118.121 E43.71755
G1 X141.487 Y118.485 E43.7538
G1 X140.822 Y118.778 E43.79006
G1 X140.129 Y118.996 E43.8263
G1 X139.417 Y119.136 E43.86251
G1 X138.5 Y119.2 E43.90837
G1 X61.5 Y119.2 E47.74991
G1 X60.775 Y119.16 E47.78614
G1 X60.058 Y119.041 E47.8224
G1 X59.359 Y118.843 E47.85864
G1 X58.686 Y118.57 E47.89488
G1 X58.047 Y118.225 E47.93111
G1 X57.45 Y117.811 E47.96735
G1 X56.902 Y117.335 E48.00357
G1 X56.409 Y116.801 E48.03982
G1 X55.979 Y116.216 E48.07605
G1 X55.615 Y115.587 E48.1123
G1 X55.322 Y114.922 E48.14856
G1 X55.104 Y114.229 E48.1848
G1 X54.964 Y113.517 E48.221
G1 X54.9 Y112.6 E48.26686
G1 X54.9 Y87.4 E49.5241
G1 X54.94 Y86.675 E49.56032
G1 X55.059 Y85.958 E49.59658
G1 X55.257 Y85.259 E49.63283
G1 X55.53 Y84.586 E49.66906
G1 X55.875 Y83.947 E49.70529
G1 X56.289 Y83.35 E49.74154
G1 X56.765 Y82.802 E49.77775
G1 X57.299 Y82.309 E49.81401
G0 F3600 X57.689 Y82.509
G1 F1800 X58.268 Y82.109 E49.84912
G1 X58.889 Y81.777 E49.88425
G1 X59.543 Y81.517 E49.91936
G1 X60.223 Y81.333 E49.95451
G1 X60.919 Y81.227 E49.98963
G1 X61.5 Y81.2 E50.01865
G1 X138.5 Y81.2 E53.8602
G1 X139.203 Y81.24 E53.89532
G1 X139.897 Y81.359 E53.93045
G1 X140.572 Y81.557 E53.96555
G1 X141.221 Y81.829 E54.00066
G1 X141.835 Y82.174 E54.03579
G1 X142.406 Y82.585 E54.07089
G1 X142.927 Y83.059 E54.10603
G1 X143.391 Y83.589 E54.14118
G1 X143.791 Y84.168 E54.17629
G1 X144.123 Y84.789 E54.21142
G1 X144.383 Y85.443 E54.24653
G1 X144.567 Y86.123 E54.28167
G1 X144.673 Y86.819 E54.3168
G1 X144.7 Y87.4 E54.34582
G1 X144.7 Y112.6 E55.60305
G1 X144.66 Y113.303 E55.63818
G1 X144.541 Y113.997 E55.67331
G1 X144.343 Y114.672 E55.7084
G1 X144.071 Y115.321 E55.74351
G1 X143.726 Y115.935 E55.77865
G1 X143.315 Y116.506 E55.81375
G1 X142.841 Y117.027 E55.84889
G1 X142.311 Y117.491 E55.88403
G1 X141.732 Y117.891 E55.91914
G1 X141.111 Y118.223 E55.95427
G1 X140.457 Y118.483 E55.98938
G1 X139.777 Y118.667 E56.02453
G1 X139.081 Y118.773 E56.05965
G1 X138.5 Y118.8 E56.08867
G1 X61.5 Y118.8 E59.93022
G1 X60.797 Y118.76 E59.96535
G1 X60.103 Y118.641 E60.00047
G1 X59.428 Y118.443 E60.03557
G1 X58.779 Y118.171 E60.07068
G1 X58.165 Y117.826 E60.10581
G1 X57.594 Y117.415 E60.14091
G1 X57.073 Y116.941 E60.17605
G1 X56.609 Y116.411 E60.2112
G1 X56.209 Y115.832 E60.24631
G1 X55.877 Y115.211 E60.28144
G1 X55.617 Y114.557 E60.31655
G1 X55.433 Y113.877 E60.3517
G1 X55.327 Y113.181 E60.38682
G1 X55.3 Y112.6 E60.41584
G1 X55.3 Y87.4 E61.67307
G1 X55.34 Y86.697 E61.7082
G1 X55.459 Y86.003 E61.74333
G1 X55.657 Y85.328 E61.77842
G1 X55.929 Y84.679 E61.81353
G1 X56.274 Y84.065 E61.84867
G1 X56.685 Y83.494 E61.88377
G1 X57.159 Y82.973 E61.91891
G1 X57.689 Y82.509 E61.95405
G0 F3600 X58.078 Y82.717
G1 F1800 X58.65 Y82.348 E61.98801
G1 X59.262 Y82.049 E62.02199
G1 X59.904 Y81.824 E62.05593
G1 X60.569 Y81.675 E62.08993
G1 X61.5 Y81.6 E62.13653
G1 X138.5 Y81.6 E65.97808
G1 X139.18 Y81.64 E66.01206
G1 X139.85 Y81.759 E66.04601
G1 X140.502 Y81.956 E66.07999
G1 X141.126 Y82.228 E66.11395
G1 X141.714 Y82.572 E66.14794
G1 X142.258 Y82.982 E66.18192
G1 X142.749 Y83.453 E66.21587
G1 X143.183 Y83.978 E66.24985
G1 X143.552 Y84.55 E66.28381
G1 X143.851 Y85.162 E66.31779
G1 X144.076 Y85.804 E66.35173
G1 X144.225 Y86.469 E66.38573
G1 X144.3 Y87.4 E66.43233
G1 X144.3 Y112.6 E67.68956
G1 X144.26 Y113.28 E67.72355
G1 X144.141 Y113.95 E67.7575
G1 X143.944 Y114.602 E67.79148
G1 X143.672 Y115.226 E67.82544
G1 X143.328 Y115.814 E67.85943
G1 X142.918 Y116.358 E67.89341
G1 X142.447 Y116.849 E67.92735
G1 X141.922 Y117.283 E67.96134
G1 X141.35 Y117.652 E67.9953
G1 X140.738 Y117.951 E68.02928
G1 X140.096 Y118.176 E68.06322
G1 X139.431 Y118.325 E68.09722
G1 X138.5 Y118.4 E68.14382
G1 X61.5 Y118.4 E71.98536
G1 X60.82 Y118.36 E72.01935
G1 X60.15 Y118.241 E72.0533
G1 X59.498 Y118.044 E72.08728
G1 X58.874 Y117.772 E72.12124
G1 X58.286 Y117.428 E72.15523
G1 X57.742 Y117.018 E72.18921
G1 X57.251 Y116.547 E72.22315
G1 X56.817 Y116.022 E72.25714
G1 X56.448 Y115.45 E72.2911
G1 X56.149 Y114.838 E72.32508
G1 X55.924 Y114.196 E72.35902
G1 X55.775 Y113.531 E72.39302
G1 X55.7 Y112.6 E72.43962
G1 X55.7 Y87.4 E73.69685
G1 X55.74 Y86.72 E73.73083
G1 X55.859 Y86.05 E73.76478
G1 X56.056 Y85.398 E73.79876
G1 X56.328 Y84.774 E73.83273
G1 X56.672 Y84.186 E73.86671
G1 X57.082 Y83.642 E73.9007
G1 X57.553 Y83.151 E73.93464
G1 X58.078 Y82.717 E73.96863
G0 F3600 X57.945 Y83.335
G1 F1800 X58.465 Y82.934 E74.00139
G1 X59.029 Y82.598 E74.03414
G1 X59.631 Y82.334 E74.06693
G1 X60.26 Y82.144 E74.09972
G1 X60.907 Y82.033 E74.13247
G1 X61.5 Y82 E74.1621
G1 X138.5 Y82 E78.00364
G1 X139.156 Y82.04 E78.03643
G1 X139.802 Y82.159 E78.0692
G1 X140.429 Y82.356 E78.10199
G1 X141.027 Y82.628 E78.13477
G1 X141.588 Y82.97 E78.16755
G1 X142.103 Y83.378 E78.20033
G1 X142.565 Y83.845 E78.2331
G1 X142.966 Y84.365 E78.26586
G1 X143.302 Y84.929 E78.29861
G1 X143.566 Y85.531 E78.33141
G1 X143.756 Y86.16 E78.36419
G1 X143.867 Y86.807 E78.39694
G1 X143.9 Y87.4 E78.42657
G1 X143.9 Y112.6 E79.6838
G1 X143.86 Y113.256 E79.71659
G1 X143.741 Y113.902 E79.74936
G1 X143.544 Y114.529 E79.78215
G1 X143.272 Y115.127 E79.81493
G1 X142.93 Y115.688 E79.84771
G1 X142.522 Y116.203 E79.88049
G1 X142.055 Y116.665 E79.91326
G1 X141.535 Y117.066 E79.94602
G1 X140.971 Y117.402 E79.97877
G1 X140.369 Y117.666 E80.01157
G1 X139.74 Y117.856 E80.04435
G1 X139.093 Y117.967 E80.0771
G1 X138.5 Y118 E80.10673
G1 X61.5 Y118 E83.94828
G1 X60.844 Y117.96 E83.98107
G1 X60.198 Y117.841 E84.01384
G1 X59.571 Y117.644 E84.04663
G1 X58.973 Y117.372 E84.0794
G1 X58.412 Y117.03 E84.11218
G1 X57.897 Y116.622 E84.14496
G1 X57.435 Y116.155 E84.17773
G1 X57.034 Y115.635 E84.21049
G1 X56.698 Y115.071 E84.24325
G1 X56.434 Y114.469 E84.27604
G1 X56.244 Y113.84 E84.30882
G1 X56.133 Y113.193 E84.34157
G1 X56.1 Y112.6 E84.3712
G1 X56.1 Y87.4 E85.62844
G1 X56.14 Y86.744 E85.66123
G1 X56.259 Y86.098 E85.694
G1 X56.456 Y85.471 E85.72679
G1 X56.728 Y84.873 E85.75956
G1 X57.07 Y84.312 E85.79234
G1 X57.478 Y83.797 E85.82512
G1 X57.945 Y83.335 E85.85789
G0 F3600 X58.336 Y83.529
G1 F1800 X58.85 Y83.16 E85.88946
G1 X59.406 Y82.86 E85.92098
G1 X59.995 Y82.632 E85.95249
G1 X60.609 Y82.48 E85.98405
G1 X61.5 Y82.4 E86.02868
G1 X138.5 Y82.4 E89.87022
G1 X139.131 Y82.44 E89.90177
G1 X139.752 Y82.559 E89.93331
G1 X140.352 Y82.756 E89.96482
G1 X140.924 Y83.027 E89.9964
G1 X141.456 Y83.367 E90.0279
G1 X141.941 Y83.773 E90.05945
G1 X142.371 Y84.236 E90.09098
G1 X142.74 Y84.75 E90.12255
G1 X143.04 Y85.306 E90.15406
G1 X143.268 Y85.895 E90.18557
G1 X143.42 Y86.509 E90.21713
G1 X143.5 Y87.4 E90.26176
G1 X143.5 Y112.6 E91.519
G1 X143.46 Y113.231 E91.55054
G1 X143.341 Y113.852 E91.58209
G1 X143.144 Y114.452 E91.61359
G1 X142.873 Y115.024 E91.64517
G1 X142.533 Y115.556 E91.67667
G1 X142.127 Y116.041 E91.70822
G1 X141.664 Y116.471 E91.73975
G1 X141.15 Y116.84 E91.77132
G1 X140.594 Y117.14 E91.80284
G1 X140.005 Y117.368 E91.83435
G1 X139.391 Y117.52 E91.8659
G1 X138.5 Y117.6 E91.91053
G1 X61.5 Y117.6 E95.75208
G1 X60.869 Y117.56 E95.78362
G1 X60.248 Y117.441 E95.81517
G1 X59.648 Y117.244 E95.84668
G1 X59.076 Y116.973 E95.87825
G1 X58.544 Y116.633 E95.90975
G1 X58.059 Y116.227 E95.94131
G1 X57.629 Y115.764 E95.97283
G1 X57.26 Y115.25 E96.0044
G1 X56.96 Y114.694 E96.03592
G1 X56.732 Y114.105 E96.06743
G1 X56.58 Y113.491 E96.09899
G1 X56.5 Y112.6 E96.14362
G1 X56.5 Y87.4 E97.40085
G1 X56.54 Y86.769 E97.43239
G1 X56.659 Y86.148 E97.46394
G1 X56.856 Y85.548 E97.49545
G1 X57.127 Y84.976 E97.52702
G1 X57.467 Y84.444 E97.55852
G1 X57.873 Y83.959 E97.59008
G1 X58.336 Y83.529 E97.6216
G0 F3600 X58.725 Y83.731
G1 F1800 X59.232 Y83.398 E97.65187
G1 X59.778 Y83.134 E97.68212
G1 X60.354 Y82.945 E97.71237
G1 X60.95 Y82.833 E97.74262
G1 X61.5 Y82.8 E97.77011
G1 X138.5 Y82.8 E101.61166
G1 X139.105 Y82.84 E101.64191
G1 X139.699 Y82.959 E101.67213
G1 X140.273 Y83.155 E101.70239
G1 X140.816 Y83.426 E101.73267
G1 X141.319 Y83.765 E101.76293
G1 X141.772 Y84.167 E101.79315
G1 X142.169 Y84.625 E101.82338
G1 X142.502 Y85.132 E101.85365
G1 X142.766 Y85.678 E101.8839
G1 X142.955 Y86.254 E101.91415
G1 X143.067 Y86.85 E101.9444
G1 X143.1 Y87.4 E101.97189
G1 X143.1 Y112.6 E103.22913
G1 X143.06 Y113.205 E103.25937
G1 X142.941 Y113.799 E103.2896
G1 X142.745 Y114.373 E103.31986
G1 X142.474 Y114.916 E103.35014
G1 X142.135 Y115.419 E103.3804
G1 X141.733 Y115.872 E103.41061
G1 X141.275 Y116.269 E103.44085
G1 X140.768 Y116.602 E103.47112
G1 X140.222 Y116.866 E103.50137
G1 X139.646 Y117.055 E103.53162
G1 X139.05 Y117.167 E103.56187
G1 X138.5 Y117.2 E103.58936
G1 X61.5 Y117.2 E107.43091
G1 X60.895 Y117.16 E107.46116
G1 X60.301 Y117.041 E107.49138
