;FLAVOR:Marlin
;TIME:4541
;Filament used: 3.42104m
;Layer height: 0.2
;MINX:78.884
;MINY:83.034
;MINZ:0.3
;MAXX:121.711
;MAXY:122.112
;MAXZ:76.7
;Generated with Cura_SteamEngine 4.13.1
M140 S60
M105
M190 S60
M104 S200
M105
M109 S200
M82 ;absolute extrusion mode
G21 ;metric values
 G90 ;absolute positioning
 M82 ;set extruder to absolute mode
 M107 ;start with the fan off
 G28 X0 Y0 ;move X/Y to min endstops
 G28 Z0 ;move Z to min endstops
 G1 Z15.0 F120 ;move the platform down 15mm
 G92 E0 ;zero the extruded length
 G1 F200 E6 ;extrude 6 mm of feed stock
 G92 E0 ;zero the extruded length again
 G1 F120 
 ;Put printing message on LCD screen
 M117 Printing...
G92 E0
G92 E0
G1 F1500 E-6.5
;LAYER_COUNT:385
;LAYER:0
M107
G0 F3600 X83.446 Y86.26 Z0.3
;TYPE:SKIRT
G1 F1500 E0
G1 F1800 X84.159 Y85.613 E0.04803
G1 X84.184 Y85.593 E0.04963
G1 X84.825 Y85.132 E0.08902
G1 X85.272 Y84.864 E0.11502
G1 X86.382 Y84.248 E0.17836
G1 X87.091 Y83.9 E0.21776
G1 X87.663 Y83.681 E0.24832
G1 X88.422 Y83.462 E0.28773
G1 X88.846 Y83.375 E0.30932
G1 X90.038 Y83.165 E0.36971
G1 X90.821 Y83.068 E0.40907
G1 X91.423 Y83.047 E0.43912
G1 X92.212 Y83.087 E0.47854
G1 X92.775 Y83.165 E0.5069
G1 X93.968 Y83.375 E0.56733
G1 X94.738 Y83.551 E0.60674
G1 X95.184 Y83.692 E0.63007
G1 X95.916 Y83.986 E0.66943
G1 X96.433 Y84.248 E0.69834
G1 X97.541 Y84.863 E0.76157
G1 X98.212 Y85.281 E0.80101
G1 X98.654 Y85.612 E0.82856
G1 X99.361 Y86.253 E0.87617
G1 X100.27 Y87.184 E0.94108
G1 X100.348 Y87.098 E0.94688
G1 X101.308 Y86.141 E1.0145
G1 X102.179 Y85.392 E1.07181
G1 X102.202 Y85.375 E1.07324
G1 X103.127 Y84.787 E1.12792
G1 X104.24 Y84.185 E1.19105
G1 X104.953 Y83.845 E1.23046
G1 X105.511 Y83.637 E1.26017
G1 X106.272 Y83.426 E1.29957
G1 X106.671 Y83.347 E1.31986
G1 X107.865 Y83.144 E1.38029
G1 X108.649 Y83.052 E1.41967
G1 X109.204 Y83.034 E1.44737
G1 X109.993 Y83.074 E1.48679
G1 X110.518 Y83.145 E1.51322
G1 X111.712 Y83.349 E1.57365
G1 X112.785 Y83.612 E1.62877
G1 X112.813 Y83.621 E1.63024
G1 X113.551 Y83.901 E1.66962
G1 X114.129 Y84.182 E1.70168
G1 X115.243 Y84.783 E1.76483
G1 X115.919 Y85.193 E1.80427
G1 X116.331 Y85.493 E1.8297
G1 X117.069 Y86.141 E1.8787
G1 X118.028 Y87.097 E1.94625
G1 X118.503 Y87.616 E1.98135
G1 X118.981 Y88.245 E2.02077
G1 X119.258 Y88.682 E2.04658
G1 X119.993 Y89.93 E2.11884
G1 X120.441 Y90.815 E2.16833
G1 X120.713 Y91.54 E2.20696
G1 X121.18 Y93.005 E2.28367
G1 X121.341 Y93.588 E2.31385
G1 X121.514 Y94.612 E2.36566
G1 X121.672 Y96.178 E2.44418
G1 X121.711 Y96.981 E2.48429
G1 X121.672 Y97.764 E2.52341
G1 X121.514 Y99.331 E2.60198
G1 X121.37 Y100.228 E2.6473
G1 X121.18 Y100.94 E2.68407
G1 X120.714 Y102.402 E2.76062
G1 X120.696 Y102.45 E2.76318
G1 X120.614 Y103.543 E2.81786
G1 X120.515 Y104.326 E2.85724
G1 X120.435 Y104.719 E2.87725
G1 X120.057 Y106.351 E2.96083
G1 X119.84 Y107.11 E3.00021
G1 X119.624 Y107.672 E3.03025
G1 X119.031 Y109.051 E3.10514
G1 X118.701 Y109.727 E3.14267
G1 X118.158 Y110.584 E3.19328
G1 X117.391 Y111.637 E3.25828
G1 X116.894 Y112.251 E3.29769
G1 X116.581 Y112.58 E3.32034
G1 X115.703 Y113.337 E3.37818
G1 X114.821 Y113.989 E3.4329
G1 X114.163 Y114.426 E3.47231
G1 X113.531 Y114.763 E3.50804
G1 X113.491 Y114.782 E3.51025
G1 X112.761 Y115.084 E3.54966
G1 X111.928 Y115.329 E3.59298
G1 X110.996 Y115.548 E3.64075
G1 X110.753 Y115.592 E3.65307
G1 X110.631 Y116.108 E3.67952
G1 X110.373 Y116.855 E3.71895
G1 X110.041 Y117.571 E3.75832
G1 X109.637 Y118.25 E3.79774
G1 X109.168 Y118.885 E3.83712
G1 X108.636 Y119.469 E3.87654
G1 X108.048 Y119.996 E3.91593
G1 X107.41 Y120.461 E3.95532
G1 X106.728 Y120.859 E3.99471
G1 X105.947 Y121.211 E4.03745
G1 X105.864 Y121.243 E4.04189
G1 X105.114 Y121.489 E4.08127
G1 X104.034 Y121.704 E4.13621
G1 X101.268 Y122.053 E4.2753
G1 X100.481 Y122.112 E4.31467
G1 X99.364 Y122.059 E4.37046
G1 X97.044 Y121.781 E4.48704
G1 X96.266 Y121.647 E4.52642
G1 X95.505 Y121.436 E4.56582
G1 X94.769 Y121.148 E4.60525
G1 X94.067 Y120.788 E4.64461
G1 X93.404 Y120.358 E4.68404
G1 X92.788 Y119.864 E4.72343
G1 X92.225 Y119.31 E4.76284
G1 X91.722 Y118.702 E4.8022
G1 X91.282 Y118.046 E4.84161
G1 X90.911 Y117.349 E4.881
G1 X90.612 Y116.618 E4.92041
G1 X90.491 Y116.209 E4.94169
G1 X89.546 Y116.047 E4.98952
G1 X88.617 Y115.822 E5.03721
G1 X87.86 Y115.597 E5.07661
G1 X87.129 Y115.297 E5.11603
G1 X86.433 Y114.925 E5.1554
G1 X85.989 Y114.637 E5.18181
G1 X85.599 Y114.357 E5.20576
G1 X84.815 Y113.762 E5.25486
G1 X84.211 Y113.254 E5.29424
G1 X83.856 Y112.901 E5.31921
G1 X83.15 Y112.043 E5.37465
G1 X82.38 Y110.958 E5.44102
G1 X81.956 Y110.292 E5.48041
G1 X81.545 Y109.454 E5.52698
G1 X80.941 Y108.01 E5.60507
G1 X80.674 Y107.267 E5.64446
G1 X80.53 Y106.723 E5.67253
G1 X80.151 Y105.05 E5.75811
G1 X79.978 Y103.891 E5.81658
G1 X79.891 Y102.697 E5.8763
G1 X79.863 Y102.622 E5.8803
G1 X79.398 Y101.123 E5.9586
G1 X79.237 Y100.519 E5.98978
G1 X79.08 Y99.554 E6.03856
G1 X78.921 Y97.938 E6.11957
G1 X78.884 Y97.154 E6.15873
G1 X78.921 Y96.391 E6.19684
G1 X79.08 Y94.774 E6.2779
G1 X79.242 Y93.786 E6.32785
G1 X79.397 Y93.209 E6.35766
G1 X79.861 Y91.71 E6.43595
G1 X80.208 Y90.795 E6.48477
G1 X80.553 Y90.118 E6.52268
G1 X81.291 Y88.83 E6.59674
G1 X81.786 Y88.072 E6.6419
G1 X81.803 Y88.049 E6.64333
G1 X82.49 Y87.241 E6.69624
G1 X83.446 Y86.26 E6.76458
G0 F3600 X83.732 Y86.539
G1 F1800 X84.409 Y85.926 E6.81014
G1 X84.434 Y85.906 E6.81174
G1 X85.059 Y85.457 E6.85014
G1 X85.466 Y85.214 E6.87378
G1 X86.576 Y84.598 E6.93712
G1 X87.267 Y84.26 E6.9755
G1 X87.793 Y84.059 E7.00359
G1 X88.533 Y83.847 E7.04199
G1 X88.915 Y83.769 E7.06144
G1 X90.107 Y83.559 E7.12183
G1 X90.87 Y83.465 E7.16018
G1 X91.423 Y83.447 E7.18779
G1 X92.191 Y83.487 E7.22615
G1 X92.706 Y83.559 E7.2521
G1 X93.899 Y83.769 E7.31253
G1 X94.648 Y83.942 E7.35088
G1 X95.054 Y84.07 E7.37212
G1 X95.767 Y84.357 E7.41047
G1 X96.239 Y84.598 E7.43691
G1 X97.347 Y85.213 E7.50013
G1 X97.999 Y85.621 E7.5385
G1 X98.404 Y85.925 E7.56377
G1 X99.075 Y86.533 E7.60894
G1 X100.033 Y87.514 E7.67735
G1 X100.265 Y87.787 E7.69522
G1 X100.631 Y87.381 E7.72249
G1 X101.591 Y86.424 E7.79012
G1 X102.417 Y85.714 E7.84446
G1 X102.44 Y85.697 E7.84589
G1 X103.317 Y85.139 E7.89775
G1 X104.43 Y84.537 E7.96088
G1 X105.125 Y84.207 E7.99926
G1 X105.638 Y84.017 E8.02656
G1 X106.738 Y83.742 E8.08312
G1 X107.932 Y83.539 E8.14355
G1 X108.696 Y83.449 E8.18193
G1 X109.204 Y83.434 E8.20728
G1 X109.972 Y83.474 E8.24565
G1 X110.45 Y83.54 E8.26972
G1 X111.644 Y83.744 E8.33016
G1 X112.662 Y83.993 E8.38244
G1 X112.69 Y84.002 E8.38391
G1 X113.41 Y84.275 E8.42232
G1 X113.94 Y84.534 E8.45175
G1 X115.054 Y85.135 E8.5149
G1 X115.711 Y85.535 E8.55328
G1 X116.087 Y85.809 E8.57649
G1 X116.786 Y86.424 E8.62294
G1 X117.745 Y87.38 E8.6905
G1 X118.197 Y87.873 E8.72387
G1 X118.662 Y88.487 E8.76229
G1 X118.913 Y88.885 E8.78577
G1 X119.648 Y90.133 E8.85803
G1 X120.074 Y90.973 E8.90501
G1 X120.331 Y91.662 E8.9417
G1 X120.798 Y93.127 E9.01842
G1 X120.952 Y93.681 E9.0471
G1 X121.116 Y94.652 E9.09623
G1 X121.274 Y96.218 E9.17476
G1 X121.311 Y96.981 E9.21287
G1 X121.274 Y97.723 E9.24993
G1 X121.116 Y99.29 E9.32851
G1 X120.979 Y100.143 E9.37161
G1 X120.799 Y100.818 E9.40646
G1 X120.333 Y102.28 E9.48302
G1 X120.301 Y102.365 E9.48755
G1 X120.215 Y103.513 E9.54498
G1 X120.045 Y104.629 E9.6013
G1 X119.667 Y106.261 E9.68488
G1 X119.455 Y107 E9.72323
G1 X119.256 Y107.514 E9.75073
G1 X118.663 Y108.893 E9.82562
G1 X118.349 Y109.536 E9.86132
G1 X117.834 Y110.349 E9.90934
G1 X117.067 Y111.402 E9.97433
G1 X116.319 Y112.278 E10.0318
G1 X116.299 Y112.298 E10.03321
G1 X115.465 Y113.016 E10.08811
G1 X114.583 Y113.668 E10.14283
G1 X113.941 Y114.092 E10.18122
G1 X113.359 Y114.401 E10.21409
G1 X113.319 Y114.42 E10.2163
G1 X112.608 Y114.714 E10.25469
G1 X111.837 Y114.94 E10.29477
G1 X110.905 Y115.159 E10.34253
G1 X110.415 Y115.248 E10.36738
G1 X110.377 Y115.484 E10.37931
G1 X110.177 Y116.226 E10.41765
G1 X109.901 Y116.944 E10.45602
G1 X109.552 Y117.63 E10.49442
G1 X109.133 Y118.275 E10.5328
G1 X108.65 Y118.874 E10.57118
G1 X108.108 Y119.419 E10.60953
G1 X107.511 Y119.905 E10.64794
G1 X106.868 Y120.326 E10.68628
G1 X106.184 Y120.678 E10.72466
G1 X105.72 Y120.87 E10.74971
G1 X104.989 Y121.109 E10.78808
G1 X103.984 Y121.307 E10.83919
G1 X101.218 Y121.656 E10.97828
G1 X100.451 Y121.712 E11.01664
G1 X99.412 Y121.661 E11.06854
G1 X97.092 Y121.383 E11.18511
G1 X96.334 Y121.252 E11.22349
G1 X95.593 Y121.043 E11.2619
G1 X94.879 Y120.759 E11.30024
G1 X94.198 Y120.401 E11.33862
G1 X93.558 Y119.975 E11.37698
G1 X92.965 Y119.485 E11.41536
G1 X92.426 Y118.936 E11.45374
G1 X91.948 Y118.334 E11.49209
G1 X91.534 Y117.685 E11.5305
G1 X91.19 Y116.997 E11.56887
G1 X90.92 Y116.277 E11.60724
G1 X90.804 Y115.836 E11.62999
G1 X90.614 Y115.826 E11.63948
G1 X89.64 Y115.658 E11.68879
G1 X88.711 Y115.433 E11.73648
G1 X87.974 Y115.213 E11.77485
G1 X87.264 Y114.918 E11.81321
G1 X86.588 Y114.551 E11.85158
G1 X86.079 Y114.212 E11.88209
G1 X85.84 Y114.039 E11.89681
G1 X85.056 Y113.444 E11.94592
G1 X84.469 Y112.947 E11.98429
G1 X84.146 Y112.626 E12.00701
G1 X83.476 Y111.812 E12.05961
G1 X82.706 Y110.727 E12.12598
G1 X82.294 Y110.077 E12.16438
G1 X81.914 Y109.3 E12.20753
G1 X81.31 Y107.856 E12.28562
G1 X81.051 Y107.132 E12.32398
G1 X80.92 Y106.635 E12.34962
G1 X80.541 Y104.962 E12.4352
G1 X80.377 Y103.862 E12.49069
G1 X80.286 Y102.612 E12.55322
G1 X80.245 Y102.503 E12.55903
G1 X79.78 Y101.004 E12.63733
G1 X79.627 Y100.43 E12.66697
G1 X79.479 Y99.515 E12.71321
G1 X79.32 Y97.899 E12.79422
G1 X79.284 Y97.154 E12.83143
G1 X79.32 Y96.43 E12.8676
G1 X79.479 Y94.813 E12.94866
G1 X79.632 Y93.875 E12.99607
G1 X79.779 Y93.327 E13.02438
G1 X80.243 Y91.828 E13.10267
G1 X80.573 Y90.959 E13.14904
G1 X80.9 Y90.317 E13.18499
G1 X81.638 Y89.029 E13.25905
G1 X82.108 Y88.31 E13.3019
G1 X82.125 Y88.287 E13.30333
G1 X82.776 Y87.52 E13.35352
G1 X83.732 Y86.539 E13.42186
G0 F3600 X84.019 Y86.819
G1 F1800 X84.659 Y86.238 E13.46498
G1 X84.684 Y86.218 E13.46658
G1 X85.292 Y85.782 E13.50391
G1 X85.66 Y85.563 E13.52527
G1 X86.77 Y84.947 E13.58861
G1 X87.443 Y84.62 E13.62594
G1 X87.923 Y84.437 E13.65156
G1 X88.984 Y84.163 E13.70623
G1 X90.176 Y83.953 E13.76662
G1 X90.919 Y83.863 E13.80396
G1 X91.423 Y83.847 E13.82912
G1 X92.17 Y83.887 E13.86644
G1 X92.637 Y83.953 E13.88997
G1 X93.83 Y84.163 E13.9504
G1 X94.892 Y84.437 E14.00512
G1 X94.924 Y84.448 E14.00681
G1 X95.617 Y84.729 E14.04412
G1 X96.045 Y84.948 E14.0681
G1 X97.153 Y85.563 E14.13132
G1 X97.787 Y85.96 E14.16864
G1 X98.154 Y86.237 E14.19158
G1 X98.789 Y86.812 E14.23432
G1 X99.747 Y87.793 E14.30273
G1 X100.276 Y88.414 E14.34343
G1 X100.414 Y88.218 E14.35539
G1 X100.913 Y87.665 E14.39255
G1 X101.873 Y86.708 E14.46018
G1 X102.654 Y86.036 E14.51158
G1 X102.677 Y86.019 E14.51301
G1 X103.508 Y85.491 E14.56213
G1 X104.621 Y84.889 E14.62526
G1 X105.297 Y84.569 E14.66257
G1 X105.764 Y84.396 E14.68742
G1 X106.805 Y84.136 E14.74095
G1 X107.999 Y83.933 E14.80137
G1 X108.742 Y83.847 E14.83869
G1 X109.204 Y83.834 E14.86174
G1 X109.951 Y83.874 E14.89907
G1 X110.383 Y83.934 E14.92083
G1 X111.577 Y84.138 E14.98126
G1 X112.54 Y84.374 E15.03072
G1 X112.568 Y84.383 E15.03219
G1 X113.267 Y84.649 E15.0695
G1 X113.75 Y84.886 E15.09635
G1 X114.864 Y85.487 E15.1595
G1 X115.502 Y85.877 E15.1968
G1 X115.842 Y86.126 E15.21783
G1 X116.504 Y86.708 E15.2618
G1 X117.463 Y87.664 E15.32936
G1 X117.891 Y88.131 E15.36096
G1 X118.342 Y88.728 E15.39829
G1 X118.569 Y89.088 E15.41952
G1 X119.304 Y90.336 E15.49178
G1 X119.715 Y91.152 E15.53737
G1 X119.95 Y91.783 E15.57096
G1 X120.417 Y93.248 E15.64767
G1 X120.563 Y93.774 E15.67491
G1 X120.718 Y94.692 E15.72135
G1 X120.876 Y96.258 E15.79988
G1 X120.911 Y96.981 E15.83599
G1 X120.876 Y97.683 E15.87106
G1 X120.718 Y99.25 E15.94963
G1 X120.588 Y100.058 E15.99046
G1 X120.417 Y100.697 E16.02346
G1 X119.951 Y102.159 E16.10002
G1 X119.906 Y102.279 E16.10641
G1 X119.816 Y103.483 E16.16665
G1 X119.655 Y104.539 E16.21994
G1 X119.277 Y106.171 E16.30352
G1 X119.07 Y106.889 E16.3408
G1 X118.889 Y107.356 E16.36578
G1 X118.296 Y108.735 E16.44067
G1 X117.998 Y109.344 E16.4745
G1 X117.511 Y110.113 E16.51991
G1 X116.744 Y111.166 E16.5849
G1 X116.036 Y111.995 E16.63929
G1 X116.016 Y112.015 E16.64071
G1 X115.227 Y112.694 E16.69264
G1 X114.345 Y113.346 E16.74736
G1 X113.721 Y113.758 E16.78466
G1 X113.187 Y114.04 E16.81479
G1 X113.147 Y114.059 E16.817
G1 X112.456 Y114.343 E16.85427
G1 X111.745 Y114.55 E16.89122
G1 X110.813 Y114.769 E16.93898
G1 X110.073 Y114.901 E16.97648
G1 X109.935 Y115.62 E17.01301
G1 X109.716 Y116.335 E17.05032
G1 X109.422 Y117.023 E17.08764
G1 X109.057 Y117.675 E17.12492
G1 X108.623 Y118.285 E17.16227
G1 X108.128 Y118.846 E17.1996
G1 X107.575 Y119.35 E17.23693
G1 X106.972 Y119.792 E17.27423
G1 X106.324 Y120.167 E17.31158
G1 X105.659 Y120.464 E17.34791
G1 X105.576 Y120.496 E17.35235
G1 X104.865 Y120.728 E17.38967
G1 X103.934 Y120.91 E17.43699
G1 X101.168 Y121.259 E17.57608
G1 X100.422 Y121.313 E17.6134
G1 X99.459 Y121.264 E17.6615
G1 X97.139 Y120.986 E17.77808
G1 X96.402 Y120.858 E17.8154
G1 X95.683 Y120.651 E17.85273
G1 X94.99 Y120.369 E17.89005
G1 X94.332 Y120.015 E17.92733
G1 X93.714 Y119.592 E17.96469
G1 X93.146 Y119.106 E18.00199
G1 X92.632 Y118.562 E18.03933
G1 X92.18 Y117.967 E18.0766
G1 X91.793 Y117.326 E18.11396
G1 X91.478 Y116.648 E18.15126
G1 X91.236 Y115.94 E18.18859
G1 X91.126 Y115.452 E18.21354
G1 X90.635 Y115.426 E18.23807
G1 X89.734 Y115.269 E18.2837
G1 X88.805 Y115.044 E18.33139
G1 X88.089 Y114.83 E18.36867
G1 X87.399 Y114.54 E18.40602
G1 X86.447 Y113.981 E18.46109
G1 X86.082 Y113.72 E18.48348
G1 X85.298 Y113.125 E18.53258
G1 X84.727 Y112.642 E18.56989
G1 X84.436 Y112.35 E18.59046
G1 X83.802 Y111.58 E18.64022
G1 X83.032 Y110.495 E18.7066
G1 X82.633 Y109.863 E18.74389
G1 X82.283 Y109.145 E18.78374
G1 X81.679 Y107.701 E18.86183
G1 X81.428 Y106.997 E18.89912
G1 X81.31 Y106.547 E18.92233
G1 X80.931 Y104.874 E19.00791
G1 X80.776 Y103.833 E19.06042
G1 X80.681 Y102.528 E19.1257
G1 X80.627 Y102.385 E19.13332
G1 X80.162 Y100.886 E19.21162
G1 X80.017 Y100.341 E19.23976
G1 X79.877 Y99.475 E19.28352
G1 X79.718 Y97.859 E19.36454
G1 X79.684 Y97.154 E19.39975
G1 X79.718 Y96.469 E19.43397
G1 X79.877 Y94.852 E19.51503
G1 X80.022 Y93.964 E19.55992
G1 X80.161 Y93.445 E19.58672
G1 X80.625 Y91.946 E19.66501
G1 X80.938 Y91.123 E19.70894
G1 X81.247 Y90.516 E19.74292
G1 X81.985 Y89.228 E19.81698
G1 X82.43 Y88.547 E19.85756
G1 X82.447 Y88.524 E19.85899
G1 X83.063 Y87.8 E19.90642
G1 X84.019 Y86.819 E19.97476
G0 F3600 X84.305 Y87.098
G1 F1800 X84.909 Y86.55 E20.01544
G1 X84.934 Y86.53 E20.01704
G1 X85.525 Y86.108 E20.05327
G1 X85.854 Y85.913 E20.07235
G1 X86.964 Y85.297 E20.13569
G1 X87.618 Y84.98 E20.17194
G1 X88.053 Y84.815 E20.19516
G1 X89.054 Y84.557 E20.24673
G1 X90.246 Y84.347 E20.30711
G1 X90.967 Y84.261 E20.34334
G1 X91.423 Y84.247 E20.3661
G1 X92.148 Y84.287 E20.40232
G1 X92.567 Y84.347 E20.42344
G1 X93.76 Y84.557 E20.48388
G1 X94.762 Y84.815 E20.5355
G1 X94.794 Y84.826 E20.53718
G1 X95.466 Y85.1 E20.57339
G1 X95.851 Y85.297 E20.59497
G1 X96.959 Y85.912 E20.65819
G1 X97.574 Y86.299 E20.69444
G1 X97.904 Y86.549 E20.7151
G1 X98.503 Y87.092 E20.75543
G1 X99.461 Y88.073 E20.82384
G1 X100.047 Y88.761 E20.86893
G1 X100.277 Y89.111 E20.88982
G1 X100.708 Y88.49 E20.92753
G1 X101.195 Y87.948 E20.96389
G1 X102.155 Y86.991 E21.03151
G1 X102.892 Y86.357 E21.08002
G1 X102.915 Y86.34 E21.08144
G1 X103.698 Y85.843 E21.12771
G1 X104.811 Y85.241 E21.19084
G1 X105.468 Y84.931 E21.22709
G1 X105.891 Y84.776 E21.24956
G1 X106.872 Y84.53 E21.30002
G1 X108.066 Y84.327 E21.36044
G1 X108.787 Y84.245 E21.39665
G1 X109.204 Y84.234 E21.41746
G1 X109.929 Y84.274 E21.45368
G1 X110.316 Y84.328 E21.47318
G1 X111.51 Y84.532 E21.53361
G1 X112.418 Y84.755 E21.58026
G1 X112.446 Y84.764 E21.58172
G1 X113.124 Y85.024 E21.61795
G1 X113.56 Y85.238 E21.64218
G1 X114.674 Y85.839 E21.70533
G1 X115.576 Y86.426 E21.75902
G1 X115.598 Y86.443 E21.76041
G1 X116.222 Y86.991 E21.80184
G1 X117.181 Y87.947 E21.8694
G1 X117.585 Y88.389 E21.89927
G1 X118.022 Y88.969 E21.9355
G1 X118.224 Y89.291 E21.95447
G1 X118.959 Y90.539 E22.02673
G1 X119.347 Y91.309 E22.06974
G1 X119.569 Y91.904 E22.10143
